agir/groups/components/messages/promo-message4.svg

<svg width="280" height="192" viewBox="0 0 280 192" fill="none" xmlns="http://www.w3.org/2000/svg">
<path opacity="0.4" d="M83.2276 64.6515C41.7557 33.2721 82.9721 12.0313 82.9721 12.0313C104.738 1.86744 150.643 21.3195 156.992 60.9608C165.423 113.606 198.669 110.461 212.313 138.186C216.73 147.16 208.442 162.141 193.035 166.06C177.628 169.978 154.116 152.919 148.627 140.469C143.138 128.02 102.68 137.394 93.4304 127.553C84.1807 117.711 87.4806 101.308 87.9717 95.9314C88.6995 87.9649 96.095 74.3875 83.2276 64.6515Z" fill="#E9E1FF"/>
<path opacity="0.15" d="M148.334 192C181.206 192 207.854 189.636 207.854 186.72C207.854 183.804 181.206 181.44 148.334 181.44C115.462 181.44 88.814 183.804 88.814 186.72C88.814 189.636 115.462 192 148.334 192Z" fill="#571AFF"/>
<path d="M191.534 55.9673H190.582V30.2464C190.582 26.2983 188.992 22.5118 186.161 19.72C183.33 16.9283 179.49 15.3599 175.487 15.3599H120.23C116.226 15.3599 112.387 16.9282 109.556 19.72C106.725 22.5118 105.134 26.2982 105.134 30.2464V171.353C105.134 175.301 106.725 179.088 109.556 181.88C112.386 184.671 116.226 186.24 120.23 186.24H175.487C179.49 186.24 183.33 184.671 186.161 181.88C188.992 179.088 190.582 175.302 190.582 171.353V74.2759H191.534L191.534 55.9673Z" fill="#3F3D56"/>
<g clip-path="url(#clip0)">
<path d="M186.734 30.322V171.278C186.734 174.228 185.551 177.057 183.445 179.142C181.339 181.228 178.483 182.4 175.505 182.4H120.203C117.225 182.4 114.369 181.228 112.263 179.142C110.157 177.057 108.974 174.228 108.974 171.278V30.322C108.974 27.3723 110.157 24.5434 112.263 22.4576C114.369 20.3718 117.225 19.2 120.203 19.2H126.912C126.582 20.0023 126.457 20.8727 126.546 21.7344C126.636 22.5961 126.938 23.4228 127.426 24.1417C127.914 24.8607 128.572 25.4499 129.344 25.8575C130.116 26.2651 130.977 26.4786 131.852 26.4792H163.382C164.257 26.4786 165.118 26.2651 165.89 25.8575C166.661 25.4499 167.32 24.8607 167.808 24.1417C168.296 23.4228 168.598 22.5961 168.688 21.7344C168.777 20.8727 168.652 20.0023 168.322 19.2H175.505C178.483 19.2 181.339 20.3718 183.445 22.4576C185.551 24.5434 186.734 27.3723 186.734 30.322Z" fill="white"/>
<rect x="113.06" y="29.1782" width="69.8522" height="131.295" rx="2" fill="#F4ED0F"/>
<path d="M154.29 124.933L140.9 111.716C133.506 104.416 133.448 92.6384 140.771 85.4095C148.094 78.1805 160.026 78.2378 167.42 85.5374C174.815 92.837 174.873 104.615 167.55 111.844L154.29 124.933Z" fill="white"/>
<path fill-rule="evenodd" clip-rule="evenodd" d="M132.121 102.226L142.688 112.656L153.256 102.226C159.092 96.4647 159.092 87.1245 153.256 81.3637C147.42 75.6028 137.957 75.6028 132.121 81.3637C126.285 87.1245 126.285 96.4647 132.121 102.226ZM142.688 118.961L156.449 105.378C164.049 97.8761 164.049 85.7131 156.449 78.2112C148.849 70.7093 136.528 70.7093 128.928 78.2112C121.328 85.7131 121.328 97.8761 128.928 105.378L142.688 118.961Z" fill="#000A2C"/>
<ellipse cx="146.536" cy="171.503" rx="6.58983" ry="6.56476" fill="#C4C4C4"/>
</g>
<defs>
<clipPath id="clip0">
<rect width="77.76" height="163.2" fill="white" transform="translate(108.974 19.2)"/>
</clipPath>
</defs>
</svg>

<svg width="280" height="192" fill="none" xmlns="http://www.w3.org/2000/svg"><path opacity=".4" d="M83.228 64.651c-41.472-31.379-.256-52.62-.256-52.62 21.766-10.164 67.671 9.289 74.02 48.93 8.431 52.645 41.677 49.5 55.321 77.225 4.417 8.974-3.871 23.955-19.278 27.874-15.407 3.918-38.919-13.141-44.408-25.591-5.489-12.449-45.947-3.075-55.197-12.916-9.25-9.842-5.95-26.245-5.458-31.622.728-7.966 8.123-21.543-4.744-31.28Z" fill="#E9E1FF"/><path opacity=".15" d="M148.334 192c32.872 0 59.52-2.364 59.52-5.28 0-2.916-26.648-5.28-59.52-5.28s-59.52 2.364-59.52 5.28c0 2.916 26.648 5.28 59.52 5.28Z" fill="#571AFF"/><path d="M191.534 55.967h-.952v-25.72c0-3.949-1.59-7.735-4.421-10.527a15.205 15.205 0 0 0-10.674-4.36H120.23a15.202 15.202 0 0 0-10.674 4.36 14.783 14.783 0 0 0-4.422 10.526v141.107c0 3.948 1.591 7.735 4.422 10.527a15.204 15.204 0 0 0 10.674 4.36h55.257c4.003 0 7.843-1.569 10.674-4.36a14.783 14.783 0 0 0 4.421-10.527V74.276h.952V55.967Z" fill="#3F3D56"/><g clip-path="url(#a)"><path d="M186.734 30.322v140.956c0 2.95-1.183 5.779-3.289 7.864a11.284 11.284 0 0 1-7.94 3.258h-55.302a11.284 11.284 0 0 1-7.94-3.258 11.065 11.065 0 0 1-3.289-7.864V30.322c0-2.95 1.183-5.779 3.289-7.864a11.284 11.284 0 0 1 7.94-3.258h6.709a5.244 5.244 0 0 0 .514 4.942 5.317 5.317 0 0 0 1.918 1.716 5.38 5.38 0 0 0 2.508.621h31.53a5.38 5.38 0 0 0 2.508-.621 5.325 5.325 0 0 0 1.918-1.716 5.244 5.244 0 0 0 .514-4.942h7.183c2.978 0 5.834 1.172 7.94 3.258a11.068 11.068 0 0 1 3.289 7.864Z" fill="#fff"/><rect x="113.06" y="29.178" width="69.852" height="131.295" rx="2" fill="#F4ED0F"/><path d="m154.29 124.933-13.39-13.217c-7.394-7.3-7.452-19.078-.129-26.306 7.323-7.23 19.255-7.172 26.649.127 7.395 7.3 7.453 19.078.13 26.307l-13.26 13.089Z" fill="#fff"/><path fill-rule="evenodd" clip-rule="evenodd" d="m132.121 102.226 10.567 10.43 10.568-10.43a14.618 14.618 0 0 0 0-20.862c-5.836-5.761-15.299-5.761-21.135 0a14.618 14.618 0 0 0 0 20.862Zm10.567 16.735 13.761-13.583a19.035 19.035 0 0 0 0-27.167c-7.6-7.502-19.921-7.502-27.521 0a19.035 19.035 0 0 0 0 27.167l13.76 13.583Z" fill="#000A2C"/><ellipse cx="146.536" cy="171.503" rx="6.59" ry="6.565" fill="#C4C4C4"/></g><defs><clipPath id="a"><path fill="#fff" transform="translate(108.974 19.2)" d="M0 0h77.76v163.2H0z"/></clipPath></defs></svg>
